fs/globe_shield_24_filled.svg

<svg viewBox="0 0 24 24" fill="none" xmlns="http://www.w3.org/2000/svg" height="1em" width="1em">
  <path d="M8.90435 16.5008H12.0002L12.0002 17C12.0003 18.7281 12.5911 20.0718 13.3834 21.0892C12.9446 21.6738 12.4719 21.999 12.0001 21.999C10.8031 21.999 9.59951 19.9051 8.9624 16.7953L8.90435 16.5008ZM8.67404 15.0009H12.0001L12 13.5001C11.9999 12.651 12.6763 12.0477 13.4093 11.9813C14.1826 11.9113 14.894 11.6517 15.4934 11.3413C15.4819 10.885 15.4586 10.4373 15.4246 10.0002H8.57558L8.54234 10.4887C8.51361 10.9814 8.49853 11.4862 8.49853 12.0005C8.49853 13.0476 8.56099 14.0551 8.67404 15.0009ZM21.8016 10.0002C21.9258 10.612 21.9941 11.244 22.001 11.8908C20.6711 11.6039 19.5852 10.8182 19.0361 10.3473C18.8287 10.1693 18.5845 10.0537 18.3295 10.0006L21.8016 10.0002ZM3.06589 16.501L7.37153 16.5008C7.7363 18.583 8.35458 20.3545 9.16372 21.5942C6.60088 20.8373 4.46722 19.0825 3.21224 16.7799L3.06589 16.501ZM2.1986 10.0002L7.06862 10.0008C7.02238 10.6508 6.99854 11.319 6.99854 12.0005C6.99854 12.8299 7.03385 13.6396 7.10188 14.4207L7.159 15.0009H2.45637C2.1589 14.0537 1.99854 13.0458 1.99854 12.0005C1.99854 11.3155 2.0674 10.6465 2.1986 10.0002ZM14.9444 2.57707L14.8365 2.40684C17.8548 3.29781 20.2788 5.57442 21.372 8.50016L16.7811 8.50045C16.4656 6.08353 15.8246 4.00785 14.9444 2.57707ZM9.04186 2.44365L9.16364 2.40688C8.28288 3.75639 7.62827 5.736 7.28061 8.06062L7.21905 8.50045L2.62816 8.50016C3.70663 5.6139 6.08022 3.35936 9.04186 2.44365ZM12.0001 2.00195C13.3189 2.00195 14.6457 4.5437 15.2141 8.1854L15.2609 8.5002H8.73926C9.27868 4.69102 10.6436 2.00195 12.0001 2.00195ZM22.5003 12.9773C20.5935 12.8046 19.0662 11.6905 18.3851 11.1063C18.1683 10.9203 17.8321 10.9202 17.6152 11.1062C16.9339 11.6904 15.4061 12.8046 13.4996 12.9773C13.2245 13.0022 13 13.2239 13 13.5L13.0003 17C13.0003 21.2225 17.0938 22.716 17.873 22.962C17.9563 22.9883 18.0442 22.9883 18.1275 22.962C18.9066 22.716 22.9998 21.2225 22.9998 17L22.9999 13.5C22.9999 13.2238 22.7754 13.0022 22.5003 12.9773Z" fill="#212121"/>
</svg>

<svg viewBox="0 0 24 24" fill="none" xmlns="http://www.w3.org/2000/svg" height="1em" width="1em">
  <path d="M8.904 16.5H12v.5c0 1.728.591 3.072 1.383 4.09-.438.584-.911.909-1.383.909-1.197 0-2.4-2.094-3.038-5.204l-.058-.294Zm-.23-1.5H12v-1.5c0-.849.676-1.452 1.41-1.519.773-.07 1.484-.33 2.083-.64a25.63 25.63 0 0 0-.068-1.34h-6.85l-.033.488A25.987 25.987 0 0 0 8.674 15Zm13.128-5c.124.612.192 1.244.199 1.89-1.33-.286-2.416-1.072-2.965-1.543a1.576 1.576 0 0 0-.707-.346h3.473ZM3.066 16.501h4.306c.364 2.082.983 3.854 1.792 5.093a10.029 10.029 0 0 1-5.952-4.814l-.146-.279Zm-.867-6.5h4.87a28.211 28.211 0 0 0 .033 4.42l.057.58H2.456a10.047 10.047 0 0 1-.258-5Zm12.745-7.424-.108-.17A10.027 10.027 0 0 1 21.372 8.5h-4.59c-.316-2.416-.957-4.492-1.838-5.923Zm-5.902-.133.122-.037C8.283 3.757 7.628 5.736 7.28 8.06l-.062.44H2.63a10.028 10.028 0 0 1 6.413-6.057ZM12 2.002c1.319 0 2.646 2.542 3.214 6.183l.047.315H8.739C9.28 4.691 10.644 2.002 12 2.002Zm10.5 10.975c-1.907-.172-3.434-1.287-4.115-1.87a.6.6 0 0 0-.77 0c-.681.583-2.209 1.698-4.115 1.87a.538.538 0 0 0-.5.523V17c0 4.223 4.094 5.716 4.873 5.962a.42.42 0 0 0 .255 0C18.907 22.716 23 21.222 23 17v-3.5a.538.538 0 0 0-.5-.523Z" fill="#212121"/>
</svg>
